X: 754
T: Baijia shan
L: 1/16
M: 2/4
K: F
G2 G A G F D C [I:setbarnb 1]| 
F4D4 | 
G2 G A G F d c | 
F4D4 | 
G2 F2G4 | 
c4d f d c | 
B2 c2 G2 F2 | 
D2 F F D C B,2 | 
C8 |]

@@@ Tune index: 9628
